Newaita/actions/24/object-order-back.svg

<svg height="24" viewBox="0 0 24 24" width="24" xmlns="http://www.w3.org/2000/svg"><g fill="#424242"><path d="m2.480469 19.535156h18.855469c.273437 0 .496093.222656.496093.496094v.996094c0 .273437-.222656.496094-.496093.496094h-18.855469c-.273438 0-.496094-.222657-.496094-.496094v-.996094c0-.273438.222656-.496094.496094-.496094zm0 0"/><path d="m11.410156 3.164062h9.925782c.273437 0 .496093.222657.496093.496094v.992188c0 .273437-.222656.496094-.496093.496094h-9.925782c-.273437 0-.496094-.222657-.496094-.496094v-.992188c0-.273437.222657-.496094.496094-.496094zm0 0"/><path d="m11.410156 8.621094h9.925782c.273437 0 .496093.222656.496093.496094v.992187c0 .273437-.222656.496094-.496093.496094h-9.925782c-.273437 0-.496094-.222657-.496094-.496094v-.992187c0-.273438.222657-.496094.496094-.496094zm0 0"/><path d="m11.410156 14.078125h9.925782c.273437 0 .496093.222656.496093.496094v.992187c0 .277344-.222656.496094-.496093.496094h-9.925782c-.273437 0-.496094-.21875-.496094-.496094v-.992187c0-.273438.222657-.496094.496094-.496094zm0 0"/><path d="m4.464844 14.078125h1.984375v-10.40625c0-.273437-.21875-.496094-.496094-.496094h-.992187c-.273438 0-.496094.222657-.496094.496094zm0 0"/><path d="m8.929688 12.589844h-6.945313l3.472656 4.960937zm0 0"/></g></svg>

<?xml version="1.0" encoding="UTF-8"?>
<svg xmlns="http://www.w3.org/2000/svg" xmlns:xlink="http://www.w3.org/1999/xlink" width="24px" height="24px" viewBox="0 0 24 24" version="1.1">
<g id="surface1">
<path style=" stroke:none;fill-rule:nonzero;fill:rgb(25.882354%,25.882354%,25.882354%);fill-opacity:1;" d="M 2.480469 19.535156 L 21.335938 19.535156 C 21.609375 19.535156 21.832031 19.757812 21.832031 20.03125 L 21.832031 21.027344 C 21.832031 21.300781 21.609375 21.523438 21.335938 21.523438 L 2.480469 21.523438 C 2.207031 21.523438 1.984375 21.300781 1.984375 21.027344 L 1.984375 20.03125 C 1.984375 19.757812 2.207031 19.535156 2.480469 19.535156 Z M 2.480469 19.535156 "/>
<path style=" stroke:none;fill-rule:nonzero;fill:rgb(25.882354%,25.882354%,25.882354%);fill-opacity:1;" d="M 11.410156 3.164062 L 21.335938 3.164062 C 21.609375 3.164062 21.832031 3.386719 21.832031 3.660156 L 21.832031 4.652344 C 21.832031 4.925781 21.609375 5.148438 21.335938 5.148438 L 11.410156 5.148438 C 11.136719 5.148438 10.914062 4.925781 10.914062 4.652344 L 10.914062 3.660156 C 10.914062 3.386719 11.136719 3.164062 11.410156 3.164062 Z M 11.410156 3.164062 "/>
<path style=" stroke:none;fill-rule:nonzero;fill:rgb(25.882354%,25.882354%,25.882354%);fill-opacity:1;" d="M 11.410156 8.621094 L 21.335938 8.621094 C 21.609375 8.621094 21.832031 8.84375 21.832031 9.117188 L 21.832031 10.109375 C 21.832031 10.382812 21.609375 10.605469 21.335938 10.605469 L 11.410156 10.605469 C 11.136719 10.605469 10.914062 10.382812 10.914062 10.109375 L 10.914062 9.117188 C 10.914062 8.84375 11.136719 8.621094 11.410156 8.621094 Z M 11.410156 8.621094 "/>
<path style=" stroke:none;fill-rule:nonzero;fill:rgb(25.882354%,25.882354%,25.882354%);fill-opacity:1;" d="M 11.410156 14.078125 L 21.335938 14.078125 C 21.609375 14.078125 21.832031 14.300781 21.832031 14.574219 L 21.832031 15.566406 C 21.832031 15.84375 21.609375 16.0625 21.335938 16.0625 L 11.410156 16.0625 C 11.136719 16.0625 10.914062 15.84375 10.914062 15.566406 L 10.914062 14.574219 C 10.914062 14.300781 11.136719 14.078125 11.410156 14.078125 Z M 11.410156 14.078125 "/>
<path style=" stroke:none;fill-rule:nonzero;fill:rgb(25.882354%,25.882354%,25.882354%);fill-opacity:1;" d="M 4.464844 14.078125 L 6.449219 14.078125 L 6.449219 3.671875 C 6.449219 3.398438 6.230469 3.175781 5.953125 3.175781 L 4.960938 3.175781 C 4.6875 3.175781 4.464844 3.398438 4.464844 3.671875 Z M 4.464844 14.078125 "/>
<path style=" stroke:none;fill-rule:nonzero;fill:rgb(25.882354%,25.882354%,25.882354%);fill-opacity:1;" d="M 8.929688 12.589844 L 1.984375 12.589844 L 5.457031 17.550781 Z M 8.929688 12.589844 "/>
</g>
</svg>
